X: 2409
M: C
L: 1/8
K: C
(3ccc c2 dcde | (3ccc c2 BdBG |\
(3ccc c2 dcde | cgec BGAB |\
(3ccc c2 dcde | (3(fgf) (3(efe) (3(ded) (3(cdc) |\
|: c2 |\
afcA FCA,C | FAcf a2(g^f) |\
gecG ECG,C | EGce g2(fe) |\
afcA FCA,C | FAcf afdc |\


